X:2744
T:Hurry the Jug
O:england
B:Joyce, P. W.; "Old Irish Folk Music and Songs"
R:jig/set dance
L:1/8
M:6/8
K:G
EFE G2 A|BAG FEF|DED FEF|A2 d AFD|
EFE G2 A|BAG FGA|BdB AGF|E3 B3||
AFA d3|d/e/fe d2 B|AFA d2 A|BAG FED|
E2 e efg|fed e3|E2 e e2 f|g2 e fdB|
AFA d3|d/e/fe d2 B|AFA d2 A|BAG FED|
EFE G2 A|BAG FGA|BdB AGF|E3 B3||


